packages/core/assets/Icons/more_down.svg

<svg viewBox="0 0 20 20" fill="none" xmlns="http://www.w3.org/2000/svg">
<path d="M5.83329 14.1667H12.5C12.7361 14.1667 12.934 14.2465 13.0937 14.4062C13.2534 14.566 13.3333 14.7639 13.3333 15C13.3333 15.2361 13.2534 15.434 13.0937 15.5938C12.934 15.7535 12.7361 15.8333 12.5 15.8333H4.99996C4.76385 15.8333 4.56593 15.7535 4.40621 15.5938C4.24649 15.434 4.16663 15.2361 4.16663 15V7.5C4.16663 7.26389 4.24649 7.06597 4.40621 6.90625C4.56593 6.74653 4.76385 6.66667 4.99996 6.66667C5.23607 6.66667 5.43399 6.74653 5.59371 6.90625C5.75343 7.06597 5.83329 7.26389 5.83329 7.5V14.1667ZM9.99996 10H16.6666C16.9027 10 17.1007 10.0799 17.2604 10.2396C17.4201 10.3993 17.5 10.5972 17.5 10.8333C17.5 11.0694 17.4201 11.2674 17.2604 11.4271C17.1007 11.5868 16.9027 11.6667 16.6666 11.6667H9.16663C8.93051 11.6667 8.7326 11.5868 8.57288 11.4271C8.41315 11.2674 8.33329 11.0694 8.33329 10.8333V3.33333C8.33329 3.09722 8.41315 2.89931 8.57288 2.73958C8.7326 2.57986 8.93051 2.5 9.16663 2.5C9.40274 2.5 9.60065 2.57986 9.76038 2.73958C9.9201 2.89931 9.99996 3.09722 9.99996 3.33333V10Z" fill="currentColor"/>
</svg>

<svg xmlns="http://www.w3.org/2000/svg" width="20" height="20" fill="none" viewBox="0 0 20 20">
  <path fill="#201F1F" d="M5.833 14.167H12.5c.236 0 .434.08.594.24.16.159.24.357.24.593s-.08.434-.24.594a.806.806 0 0 1-.594.24H5a.806.806 0 0 1-.594-.24.807.807 0 0 1-.24-.594V7.5c0-.236.08-.434.24-.594.16-.16.358-.24.594-.24s.434.08.594.24c.16.16.24.358.24.594v6.667ZM10 10h6.667c.236 0 .434.08.593.24.16.16.24.357.24.593s-.08.434-.24.594a.807.807 0 0 1-.593.24h-7.5a.806.806 0 0 1-.594-.24.806.806 0 0 1-.24-.594v-7.5c0-.236.08-.434.24-.593.16-.16.358-.24.594-.24s.434.08.593.24c.16.16.24.357.24.593V10Z"/>
</svg>
